X:1
T:Title
%%score { ( 1 3 ) | ( 2 4 ) }
L:1/8
M:6/8
K:G
V:1 treble nm="Grand Piano"
V:3 treble 
V:2 bass 
V:4 bass 
V:1
 z3 z2[Q:1/4=93] [B,DG] | [DGB]2 [DGB] F-[FG][A,FA] | [GB]2 [FB] [FA] G2 | G>AB AFD | %4
 [B,DG]3 .[B,DG]3 |[M:1/8] [B,DG] |[M:3/4] [DGB]2 [DGB]F- [FG][A,FA] | [GB]2 [FB][FA] G2 | %8
 G>A BA FD | [B,DG]3 .[B,DG]3 | [DGd]3 [Dd]3 | [Ge]3 [Gd]2 [DG] | [DG]>[DA] [DB]A FD | G3 .G3 | %14
 d3 d3 | [Ge]3 [Gd]2 [DG] | [DG]>[DA] [DB]A FD | G3 .G3 |] %18
V:2
 z3 z2 G, | G,2 G, z B,D, | z3 [E,B,]3 | [G,B,D]>[F,A,D][G,D] [D,F,D][D,A,D][D,C] | G,,3 .G,,3 | %5
[M:1/8] G, |[M:3/4] G,2 .G,2 B,D, | z2 z [E,B,]3 | [G,B,D]>[F,A,D] [G,D][D,F,D] [D,A,D][D,C] | %9
 G,,3 .G,,3 | B,3 [G,B,]3 | [C,C]3 [G,B,]2 [G,B,] | [B,,G,]>[A,,F,] [G,,G,][D,F,D] [D,A,D][D,C] | %13
 [G,B,D]3 .[G,B,D]3 | [B,DG]3[K:bass] [G,B,D]3 | [C,C]3 [G,B,]2 [G,B,] | %16
 [B,,G,]>[A,,F,] [G,,G,][D,F,D] [D,A,D][D,C] | [G,B,D]3 .[G,B,D]3 |] %18
V:3
 x6 | z3 .[CA]3 | x6 | x6 | x6 |[M:1/8] x |[M:3/4] z2 z [CA] z2 | x6 | x6 | x6 | x6 | x6 | x6 | %13
 x6 | x6 | x6 | x6 | x6 |] %18
V:4
 x6 | z3 .D,3 | [B,,G,]2 [B,,B,] z E2 | x6 | x6 |[M:1/8] x |[M:3/4] z2 z .D,3 | %7
 [B,,G,]2 .[B,,B,]2 E2 | x6 | x6 | x6 | x6 | x6 | x6 | x3[K:bass] x3 | x6 | x6 | x6 |] %18

